X: 5857
T: Calliope House
R: jig
M: 6/8
K: Dmajor
f|:~a3 f2d|efe def|gfe fed|~B3 B2d|~A3 A2F|
A2B d2e|1 ~f3 fed|~e3 efg:|2 faf efe|d3- d2B||
|:~A3 fAA|eAA fed|~B3 e2d|efe edB|~A3 A2F|
A2B d2e|1 ~f3 fed|~e3 edB:|2 faf efe|d3- d2f||

